dist/img/logo.svg

<svg width="151" height="65" viewBox="0 0 151 65" fill="none" xmlns="http://www.w3.org/2000/svg">
<path d="M11.925 37.75C11.925 38.6167 11.725 39.3917 11.325 40.075C10.9417 40.7583 10.3167 41.2917 9.45 41.675C8.6 42.0583 7.475 42.25 6.075 42.25C5.09167 42.25 4.20833 42.1917 3.425 42.075C2.65833 41.975 1.875 41.775 1.075 41.475V37.65C1.95833 38.05 2.85 38.3417 3.75 38.525C4.65 38.6917 5.35833 38.775 5.875 38.775C6.90833 38.775 7.425 38.5417 7.425 38.075C7.425 37.875 7.34167 37.7 7.175 37.55C7.00833 37.4 6.70833 37.2333 6.275 37.05C5.85833 36.8667 5.25833 36.6167 4.475 36.3C3.325 35.8167 2.46667 35.2667 1.9 34.65C1.33333 34.0167 1.05 33.1333 1.05 32C1.05 30.65 1.56667 29.6333 2.6 28.95C3.65 28.2667 5.03333 27.925 6.75 27.925C7.66667 27.925 8.525 28.025 9.325 28.225C10.125 28.425 10.9583 28.7167 11.825 29.1L10.525 32.175C9.84167 31.8583 9.15 31.6083 8.45 31.425C7.75 31.2417 7.19167 31.15 6.775 31.15C5.99167 31.15 5.6 31.3417 5.6 31.725C5.6 31.8917 5.66667 32.0417 5.8 32.175C5.95 32.3083 6.225 32.4583 6.625 32.625C7.025 32.7917 7.60833 33.0333 8.375 33.35C9.175 33.6667 9.83333 34.0167 10.35 34.4C10.8833 34.7667 11.275 35.2167 11.525 35.75C11.7917 36.2667 11.925 36.9333 11.925 37.75ZM19.34 42H14.565V23H19.34V42ZM35.8461 35.05C35.8461 37.3667 35.2294 39.15 33.9961 40.4C32.7628 41.6333 31.0711 42.25 28.9211 42.25C27.5878 42.25 26.4044 41.975 25.3711 41.425C24.3378 40.8583 23.5211 40.0417 22.9211 38.975C22.3378 37.8917 22.0461 36.5833 22.0461 35.05C22.0461 32.7667 22.6628 31.0083 23.8961 29.775C25.1294 28.5417 26.8294 27.925 28.9961 27.925C30.3294 27.925 31.5044 28.2 32.5211 28.75C33.5544 29.3 34.3628 30.1083 34.9461 31.175C35.5461 32.225 35.8461 33.5167 35.8461 35.05ZM26.8961 35.05C26.8961 36.2333 27.0544 37.1417 27.3711 37.775C27.6878 38.3917 28.2211 38.7 28.9711 38.7C29.7044 38.7 30.2211 38.3917 30.5211 37.775C30.8378 37.1417 30.9961 36.2333 30.9961 35.05C30.9961 33.8667 30.8378 32.975 30.5211 32.375C30.2211 31.775 29.6961 31.475 28.9461 31.475C28.2294 31.475 27.7044 31.775 27.3711 32.375C27.0544 32.975 26.8961 33.8667 26.8961 35.05ZM45.3391 38.475C45.7724 38.475 46.1641 38.4333 46.5141 38.35C46.8807 38.25 47.2557 38.1333 47.6391 38V41.475C47.1224 41.6917 46.5724 41.875 45.9891 42.025C45.4057 42.175 44.6641 42.25 43.7641 42.25C42.8641 42.25 42.0724 42.1083 41.3891 41.825C40.7224 41.5417 40.1974 41.0583 39.8141 40.375C39.4307 39.675 39.2391 38.7 39.2391 37.45V31.75H37.5641V29.8L39.6891 28.3L40.9141 25.4H44.0391V28.175H47.4391V31.75H44.0391V37.125C44.0391 38.025 44.4724 38.475 45.3391 38.475Z" fill="#001495"/>
<path d="M90.05 39.975C90.05 39.1083 90.3 38.5 90.8 38.15C91.3167 37.8 91.9333 37.625 92.65 37.625C93.3333 37.625 93.9167 37.8 94.4 38.15C94.9 38.5 95.15 39.1083 95.15 39.975C95.15 40.7917 94.9 41.3833 94.4 41.75C93.9167 42.1167 93.3333 42.3 92.65 42.3C91.9333 42.3 91.3167 42.1167 90.8 41.75C90.3 41.3833 90.05 40.7917 90.05 39.975ZM104.177 42.25C102.077 42.25 100.402 41.6833 99.1516 40.55C97.9016 39.4167 97.2766 37.6167 97.2766 35.15C97.2766 33.4667 97.5932 32.1 98.2266 31.05C98.8599 29.9833 99.7182 29.2 100.802 28.7C101.902 28.1833 103.152 27.925 104.552 27.925C105.402 27.925 106.202 28.0167 106.952 28.2C107.718 28.3833 108.427 28.6417 109.077 28.975L107.677 32.5C107.11 32.25 106.577 32.05 106.077 31.9C105.593 31.75 105.085 31.675 104.552 31.675C103.835 31.675 103.252 31.9583 102.802 32.525C102.352 33.0917 102.127 33.9583 102.127 35.125C102.127 36.325 102.352 37.1833 102.802 37.7C103.268 38.2 103.86 38.45 104.577 38.45C105.26 38.45 105.943 38.3417 106.627 38.125C107.327 37.9083 107.985 37.6083 108.602 37.225V41.025C108.035 41.3917 107.393 41.6917 106.677 41.925C105.96 42.1417 105.127 42.25 104.177 42.25ZM124.553 35.05C124.553 37.3667 123.936 39.15 122.703 40.4C121.47 41.6333 119.778 42.25 117.628 42.25C116.295 42.25 115.111 41.975 114.078 41.425C113.045 40.8583 112.228 40.0417 111.628 38.975C111.045 37.8917 110.753 36.5833 110.753 35.05C110.753 32.7667 111.37 31.0083 112.603 29.775C113.836 28.5417 115.536 27.925 117.703 27.925C119.036 27.925 120.211 28.2 121.228 28.75C122.261 29.3 123.07 30.1083 123.653 31.175C124.253 32.225 124.553 33.5167 124.553 35.05ZM115.603 35.05C115.603 36.2333 115.761 37.1417 116.078 37.775C116.395 38.3917 116.928 38.7 117.678 38.7C118.411 38.7 118.928 38.3917 119.228 37.775C119.545 37.1417 119.703 36.2333 119.703 35.05C119.703 33.8667 119.545 32.975 119.228 32.375C118.928 31.775 118.403 31.475 117.653 31.475C116.936 31.475 116.411 31.775 116.078 32.375C115.761 32.975 115.603 33.8667 115.603 35.05ZM144.146 27.925C145.729 27.925 146.938 28.325 147.771 29.125C148.604 29.925 149.021 31.2167 149.021 33V42H144.246V34.475C144.246 33.425 144.104 32.7 143.821 32.3C143.538 31.8833 143.121 31.675 142.571 31.675C141.804 31.675 141.271 32.0167 140.971 32.7C140.671 33.3667 140.521 34.3167 140.521 35.55V42H135.746V34.475C135.746 33.475 135.613 32.7583 135.346 32.325C135.079 31.8917 134.679 31.675 134.146 31.675C133.329 31.675 132.771 32.0417 132.471 32.775C132.188 33.5083 132.046 34.5667 132.046 35.95V42H127.271V28.175H130.871L131.571 29.875H131.696C132.063 29.3083 132.588 28.8417 133.271 28.475C133.971 28.1083 134.829 27.925 135.846 27.925C136.863 27.925 137.696 28.1 138.346 28.45C139.013 28.7833 139.554 29.25 139.971 29.85H140.121C140.554 29.2333 141.113 28.7583 141.796 28.425C142.496 28.0917 143.279 27.925 144.146 27.925Z" fill="#001495"/>
<g filter="url(#filter0_d)">
<path d="M55.08 54L64.88 31.84H52.52V25.44H73.12V30L63.08 54H55.08Z" fill="#FF5300"/>
<path d="M55.08 54L53.9825 53.5147L53.2372 55.2H55.08V54ZM64.88 31.84L65.9775 32.3253L66.7228 30.64H64.88V31.84ZM52.52 31.84H51.32V33.04H52.52V31.84ZM52.52 25.44V24.24H51.32V25.44H52.52ZM73.12 25.44H74.32V24.24H73.12V25.44ZM73.12 30L74.227 30.4631L74.32 30.2409V30H73.12ZM63.08 54V55.2H63.8788L64.187 54.4631L63.08 54ZM56.1775 54.4853L65.9775 32.3253L63.7825 31.3547L53.9825 53.5147L56.1775 54.4853ZM64.88 30.64H52.52V33.04H64.88V30.64ZM53.72 31.84V25.44H51.32V31.84H53.72ZM52.52 26.64H73.12V24.24H52.52V26.64ZM71.92 25.44V30H74.32V25.44H71.92ZM72.013 29.5369L61.973 53.5369L64.187 54.4631L74.227 30.4631L72.013 29.5369ZM63.08 52.8H55.08V55.2H63.08V52.8Z" fill="#E75300"/>
</g>
<g filter="url(#filter1_d)">
<path d="M73.08 43L82.88 20.84H70.52V14.44H91.12V19L81.08 43H73.08Z" fill="#FF5300"/>
<path d="M73.08 43L71.9825 42.5147L71.2372 44.2H73.08V43ZM82.88 20.84L83.9775 21.3253L84.7228 19.64H82.88V20.84ZM70.52 20.84H69.32V22.04H70.52V20.84ZM70.52 14.44V13.24H69.32V14.44H70.52ZM91.12 14.44H92.32V13.24H91.12V14.44ZM91.12 19L92.227 19.4631L92.32 19.2409V19H91.12ZM81.08 43V44.2H81.8788L82.187 43.4631L81.08 43ZM74.1775 43.4853L83.9775 21.3253L81.7825 20.3547L71.9825 42.5147L74.1775 43.4853ZM82.88 19.64H70.52V22.04H82.88V19.64ZM71.72 20.84V14.44H69.32V20.84H71.72ZM70.52 15.64H91.12V13.24H70.52V15.64ZM89.92 14.44V19H92.32V14.44H89.92ZM90.013 18.5369L79.973 42.5369L82.187 43.4631L92.227 19.4631L90.013 18.5369ZM81.08 41.8H73.08V44.2H81.08V41.8Z" fill="#E75300"/>
</g>
<defs>
<filter id="filter0_d" x="47.3201" y="20.24" width="31" height="38.96" filterUnits="userSpaceOnUse" color-interpolation-filters="sRGB">
<feFlood flood-opacity="0" result="BackgroundImageFix"/>
<feColorMatrix in="SourceAlpha" type="matrix" values="0 0 0 0 0 0 0 0 0 0 0 0 0 0 0 0 0 0 127 0"/>
<feOffset/>
<feGaussianBlur stdDeviation="2"/>
<feColorMatrix type="matrix" values="0 0 0 0 1 0 0 0 0 0.36 0 0 0 0 0 0 0 0 0.3 0"/>
<feBlend mode="normal" in2="BackgroundImageFix" result="effect1_dropShadow"/>
<feBlend mode="normal" in="SourceGraphic" in2="effect1_dropShadow" result="shape"/>
</filter>
<filter id="filter1_d" x="65.3201" y="9.23999" width="31" height="38.96" filterUnits="userSpaceOnUse" color-interpolation-filters="sRGB">
<feFlood flood-opacity="0" result="BackgroundImageFix"/>
<feColorMatrix in="SourceAlpha" type="matrix" values="0 0 0 0 0 0 0 0 0 0 0 0 0 0 0 0 0 0 127 0"/>
<feOffset/>
<feGaussianBlur stdDeviation="2"/>
<feColorMatrix type="matrix" values="0 0 0 0 1 0 0 0 0 0.36 0 0 0 0 0 0 0 0 0.3 0"/>
<feBlend mode="normal" in2="BackgroundImageFix" result="effect1_dropShadow"/>
<feBlend mode="normal" in="SourceGraphic" in2="effect1_dropShadow" result="shape"/>
</filter>
</defs>
</svg>

<svg xmlns="http://www.w3.org/2000/svg" fill="none" viewBox="0 0 151 65"><path fill="#001495" d="M11.925 37.75c0 .867-.2 1.642-.6 2.325-.383.683-1.008 1.217-1.875 1.6-.85.383-1.975.575-3.375.575-.983 0-1.867-.058-2.65-.175-.767-.1-1.55-.3-2.35-.6V37.65c.883.4 1.775.692 2.675.875.9.167 1.608.25 2.125.25 1.033 0 1.55-.233 1.55-.7 0-.2-.083-.375-.25-.525-.167-.15-.467-.317-.9-.5a69.282 69.282 0 0 0-1.8-.75c-1.15-.483-2.008-1.033-2.575-1.65-.567-.633-.85-1.517-.85-2.65 0-1.35.517-2.367 1.55-3.05 1.05-.683 2.433-1.025 4.15-1.025.917 0 1.775.1 2.575.3.8.2 1.633.492 2.5.875l-1.3 3.075a12.399 12.399 0 0 0-2.075-.75c-.7-.183-1.258-.275-1.675-.275-.783 0-1.175.192-1.175.575 0 .167.067.317.2.45.15.133.425.283.825.45.4.167.983.408 1.75.725.8.317 1.458.667 1.975 1.05.533.367.925.817 1.175 1.35.267.517.4 1.183.4 2zM19.34 42h-4.775V23h4.775v19zm16.506-6.95c0 2.317-.617 4.1-1.85 5.35-1.233 1.233-2.925 1.85-5.075 1.85-1.333 0-2.517-.275-3.55-.825-1.033-.567-1.85-1.383-2.45-2.45-.583-1.083-.875-2.392-.875-3.925 0-2.283.617-4.042 1.85-5.275 1.233-1.233 2.933-1.85 5.1-1.85 1.333 0 2.508.275 3.525.825 1.033.55 1.842 1.358 2.425 2.425.6 1.05.9 2.342.9 3.875zm-8.95 0c0 1.183.158 2.092.475 2.725.317.617.85.925 1.6.925.733 0 1.25-.308 1.55-.925.317-.633.475-1.542.475-2.725s-.158-2.075-.475-2.675c-.3-.6-.825-.9-1.575-.9-.717 0-1.242.3-1.575.9-.317.6-.475 1.492-.475 2.675zm18.443 3.425c.433 0 .825-.042 1.175-.125.367-.1.742-.217 1.125-.35v3.475c-.517.217-1.067.4-1.65.55-.583.15-1.325.225-2.225.225-.9 0-1.692-.142-2.375-.425-.667-.283-1.192-.767-1.575-1.45-.383-.7-.575-1.675-.575-2.925v-5.7h-1.675V29.8l2.125-1.5 1.225-2.9h3.125v2.775h3.4v3.575h-3.4v5.375c0 .9.433 1.35 1.3 1.35zM90.05 39.975c0-.867.25-1.475.75-1.825.517-.35 1.133-.525 1.85-.525.683 0 1.267.175 1.75.525.5.35.75.958.75 1.825 0 .817-.25 1.408-.75 1.775-.483.367-1.067.55-1.75.55-.717 0-1.333-.183-1.85-.55-.5-.367-.75-.958-.75-1.775zm14.127 2.275c-2.1 0-3.775-.567-5.025-1.7-1.25-1.133-1.875-2.933-1.875-5.4 0-1.683.316-3.05.95-4.1.633-1.067 1.491-1.85 2.575-2.35 1.1-.517 2.35-.775 3.75-.775.85 0 1.65.092 2.4.275a9.47 9.47 0 0 1 2.125.775l-1.4 3.525c-.567-.25-1.1-.45-1.6-.6a5.12 5.12 0 0 0-1.525-.225c-.717 0-1.3.283-1.75.85-.45.567-.675 1.433-.675 2.6 0 1.2.225 2.058.675 2.575.466.5 1.058.75 1.775.75.683 0 1.366-.108 2.05-.325a8.476 8.476 0 0 0 1.975-.9v3.8a8.21 8.21 0 0 1-1.925.9c-.717.217-1.55.325-2.5.325zm20.376-7.2c0 2.317-.617 4.1-1.85 5.35-1.233 1.233-2.925 1.85-5.075 1.85-1.333 0-2.517-.275-3.55-.825-1.033-.567-1.85-1.383-2.45-2.45-.583-1.083-.875-2.392-.875-3.925 0-2.283.617-4.042 1.85-5.275 1.233-1.233 2.933-1.85 5.1-1.85 1.333 0 2.508.275 3.525.825 1.033.55 1.842 1.358 2.425 2.425.6 1.05.9 2.342.9 3.875zm-8.95 0c0 1.183.158 2.092.475 2.725.317.617.85.925 1.6.925.733 0 1.25-.308 1.55-.925.317-.633.475-1.542.475-2.725s-.158-2.075-.475-2.675c-.3-.6-.825-.9-1.575-.9-.717 0-1.242.3-1.575.9-.317.6-.475 1.492-.475 2.675zm28.543-7.125c1.583 0 2.792.4 3.625 1.2.833.8 1.25 2.092 1.25 3.875v9h-4.775v-7.525c0-1.05-.142-1.775-.425-2.175-.283-.417-.7-.625-1.25-.625-.767 0-1.3.342-1.6 1.025-.3.667-.45 1.617-.45 2.85V42h-4.775v-7.525c0-1-.133-1.717-.4-2.15-.267-.433-.667-.65-1.2-.65-.817 0-1.375.367-1.675 1.1-.283.733-.425 1.792-.425 3.175V42h-4.775V28.175h3.6l.7 1.7h.125c.367-.567.892-1.033 1.575-1.4.7-.367 1.558-.55 2.575-.55 1.017 0 1.85.175 2.5.525.667.333 1.208.8 1.625 1.4h.15a4.337 4.337 0 0 1 1.675-1.425c.7-.333 1.483-.5 2.35-.5z"/><g filter="url(#filter0_d)"><path fill="#FF5300" d="M55.08 54l9.8-22.16H52.52v-6.4h20.6V30L63.08 54h-8z"/><path fill="#E75300" d="M55.08 54l-1.097-.485-.746 1.685h1.843V54zm9.8-22.16l1.098.485.745-1.685H64.88v1.2zm-12.36 0h-1.2v1.2h1.2v-1.2zm0-6.4v-1.2h-1.2v1.2h1.2zm20.6 0h1.2v-1.2h-1.2v1.2zm0 4.56l1.107.463.093-.222V30h-1.2zM63.08 54v1.2h.799l.308-.737L63.08 54zm-6.902.485l9.8-22.16-2.195-.97-9.8 22.16 2.195.97zM64.88 30.64H52.52v2.4h12.36v-2.4zm-11.16 1.2v-6.4h-2.4v6.4h2.4zm-1.2-5.2h20.6v-2.4h-20.6v2.4zm19.4-1.2V30h2.4v-4.56h-2.4zm.093 4.097l-10.04 24 2.214.926 10.04-24-2.214-.926zM63.08 52.8h-8v2.4h8v-2.4z"/></g><g filter="url(#filter1_d)"><path fill="#FF5300" d="M73.08 43l9.8-22.16H70.52v-6.4h20.6V19L81.08 43h-8z"/><path fill="#E75300" d="M73.08 43l-1.097-.485-.746 1.685h1.843V43zm9.8-22.16l1.098.485.745-1.685H82.88v1.2zm-12.36 0h-1.2v1.2h1.2v-1.2zm0-6.4v-1.2h-1.2v1.2h1.2zm20.6 0h1.2v-1.2h-1.2v1.2zm0 4.56l1.107.463.093-.222V19h-1.2zM81.08 43v1.2h.799l.308-.737L81.08 43zm-6.903.485l9.8-22.16-2.195-.97-9.8 22.16 2.195.97zM82.88 19.64H70.52v2.4h12.36v-2.4zm-11.16 1.2v-6.4h-2.4v6.4h2.4zm-1.2-5.2h20.6v-2.4h-20.6v2.4zm19.4-1.2V19h2.4v-4.56h-2.4zm.093 4.097l-10.04 24 2.214.926 10.04-24-2.214-.926zM81.08 41.8h-8v2.4h8v-2.4z"/></g><defs><filter id="filter0_d" width="31" height="38.96" x="47.32" y="20.24" color-interpolation-filters="sRGB" filterUnits="userSpaceOnUse"><feFlood flood-opacity="0" result="BackgroundImageFix"/><feColorMatrix in="SourceAlpha" values="0 0 0 0 0 0 0 0 0 0 0 0 0 0 0 0 0 0 127 0"/><feOffset/><feGaussianBlur stdDeviation="2"/><feColorMatrix values="0 0 0 0 1 0 0 0 0 0.36 0 0 0 0 0 0 0 0 0.3 0"/><feBlend in2="BackgroundImageFix" result="effect1_dropShadow"/><feBlend in="SourceGraphic" in2="effect1_dropShadow" result="shape"/></filter><filter id="filter1_d" width="31" height="38.96" x="65.32" y="9.24" color-interpolation-filters="sRGB" filterUnits="userSpaceOnUse"><feFlood flood-opacity="0" result="BackgroundImageFix"/><feColorMatrix in="SourceAlpha" values="0 0 0 0 0 0 0 0 0 0 0 0 0 0 0 0 0 0 127 0"/><feOffset/><feGaussianBlur stdDeviation="2"/><feColorMatrix values="0 0 0 0 1 0 0 0 0 0.36 0 0 0 0 0 0 0 0 0.3 0"/><feBlend in2="BackgroundImageFix" result="effect1_dropShadow"/><feBlend in="SourceGraphic" in2="effect1_dropShadow" result="shape"/></filter></defs></svg>
